src/components/svgs/tooltip/mtc.svg

<svg version="1.1" id="svg4953" xmlns:xlink="http://www.w3.org/1999/xlink" xmlns="http://www.w3.org/2000/svg" viewBox="0 0 238.2403 300">
  <defs id="defs4950">
    <linearGradient xlink:href="#linearGradient51871" id="linearGradient51873" x1="87.132767" y1="40.778233" x2="108.08436" y2="40.778233" gradientUnits="userSpaceOnUse" gradientTransform="matrix(2.70567 0 0 2.70567 -39.858001 -28.020862)"/>
    <linearGradient id="linearGradient51871">
      <stop style="stop-color:#000;stop-opacity:1" offset="0" id="stop51867"/>
      <stop style="stop-color:#676767;stop-opacity:1" offset=".40000001" id="stop51875"/>
      <stop style="stop-color:#3f3f3f;stop-opacity:1" offset=".60000002" id="stop51877"/>
      <stop style="stop-color:#333;stop-opacity:1" offset=".80000001" id="stop51879"/>
      <stop style="stop-color:#262626;stop-opacity:1" offset="1" id="stop51869"/>
    </linearGradient>
    <linearGradient xlink:href="#linearGradient47285" id="linearGradient47287" x1="84.663048" y1="71.976532" x2="113.14297" y2="71.976532" gradientUnits="userSpaceOnUse" gradientTransform="matrix(2.70567 0 0 2.70567 -39.858001 -28.020862)"/>
    <linearGradient id="linearGradient47285">
      <stop style="stop-color:#ff9595;stop-opacity:1" offset="0" id="stop47281"/>
      <stop style="stop-color:#ff7575;stop-opacity:1" offset=".2" id="stop47289"/>
      <stop style="stop-color:#ff7878;stop-opacity:1" offset=".40000001" id="stop47291"/>
      <stop style="stop-color:#ff5858;stop-opacity:1" offset=".60000002" id="stop47293"/>
      <stop style="stop-color:#b70000;stop-opacity:.9937107" offset=".80000001" id="stop47295"/>
      <stop style="stop-color:#c70000;stop-opacity:1" offset="1" id="stop47283"/>
    </linearGradient>
    <linearGradient xlink:href="#linearGradient48050" id="linearGradient48052" x1="82.088196" y1="71.976532" x2="115.71782" y2="71.976532" gradientUnits="userSpaceOnUse" gradientTransform="matrix(2.70567 0 0 2.70567 -39.858001 -28.020862)"/>
    <linearGradient id="linearGradient48050">
      <stop style="stop-color:#fac000;stop-opacity:1" offset="0" id="stop48046"/>
      <stop style="stop-color:#ffd645;stop-opacity:1" offset=".2" id="stop48054"/>
      <stop style="stop-color:#ffc505;stop-opacity:1" offset=".40000001" id="stop48056"/>
      <stop style="stop-color:#ffc80b;stop-opacity:1" offset=".60000002" id="stop48058"/>
      <stop style="stop-color:#ffd038;stop-opacity:1" offset=".80000001" id="stop48060"/>
      <stop style="stop-color:#bd9100;stop-opacity:1" offset="1" id="stop48048"/>
    </linearGradient>
    <linearGradient xlink:href="#linearGradient10014" id="linearGradient10016" x1="50.746033" y1="15.146142" x2="81.038315" y2="15.146142" gradientUnits="userSpaceOnUse" gradientTransform="matrix(2.70567 0 0 2.70567 -39.858001 -28.020862)"/>
    <linearGradient id="linearGradient10014">
      <stop style="stop-color:#ffc242;stop-opacity:1" offset="0" id="stop10010"/>
      <stop style="stop-color:#c08a00;stop-opacity:1" offset=".2" id="stop10018"/>
      <stop style="stop-color:#c09100;stop-opacity:1" offset=".40000001" id="stop10020"/>
      <stop style="stop-color:#eab100;stop-opacity:1" offset=".60000002" id="stop10022"/>
      <stop style="stop-color:#d49000;stop-opacity:1" offset=".80000001" id="stop10024"/>
      <stop style="stop-color:#f79e00;stop-opacity:1" offset="1" id="stop10012"/>
    </linearGradient>
    <linearGradient xlink:href="#linearGradient5172" id="linearGradient5174" x1="37.282806" y1="64.209282" x2="95.537193" y2="64.468185" gradientUnits="userSpaceOnUse" gradientTransform="matrix(2.70567 0 0 2.70567 -39.858001 -28.020862)"/>
    <linearGradient id="linearGradient5172">
      <stop style="stop-color:#ff9f9f;stop-opacity:1" offset="0" id="stop5168"/>
      <stop style="stop-color:#ff6868;stop-opacity:1" offset=".20096463" id="stop5626"/>
      <stop style="stop-color:#ff1e1e;stop-opacity:1" offset=".40000001" id="stop5628"/>
      <stop style="stop-color:#c40000;stop-opacity:1" offset=".60000002" id="stop5630"/>
      <stop style="stop-color:#ff4545;stop-opacity:1" offset=".80000001" id="stop5632"/>
      <stop style="stop-color:#ff8f8f;stop-opacity:1" offset="1" id="stop5170"/>
    </linearGradient>
    <linearGradient xlink:href="#linearGradient7092" id="linearGradient7094" x1="36.506081" y1="116.50877" x2="96.572823" y2="116.76768" gradientUnits="userSpaceOnUse" gradientTransform="matrix(2.70567 0 0 2.70567 -39.858001 -28.020862)"/>
    <linearGradient id="linearGradient7092">
      <stop style="stop-color:#ff3f3f;stop-opacity:1" offset="0" id="stop7088"/>
      <stop style="stop-color:#ea0000;stop-opacity:1" offset=".20096463" id="stop7096"/>
      <stop style="stop-color:#c40000;stop-opacity:1" offset=".40000001" id="stop7098"/>
      <stop style="stop-color:#870000;stop-opacity:1" offset=".60000002" id="stop7100"/>
      <stop style="stop-color:#ed0000;stop-opacity:.90566039" offset=".80000001" id="stop7102"/>
      <stop style="stop-color:#fd0000;stop-opacity:1" offset="1" id="stop7090"/>
    </linearGradient>
    <linearGradient xlink:href="#linearGradient17339" id="linearGradient17341" x1="24.227865" y1="86.866188" x2="55.555779" y2="86.866188" gradientUnits="userSpaceOnUse" gradientTransform="matrix(2.70567 0 0 2.70567 -39.225011 -28.900302)"/>
    <linearGradient id="linearGradient17339">
      <stop style="stop-color:#9a6a00;stop-opacity:1" offset="0" id="stop17335"/>
      <stop style="stop-color:#b48100;stop-opacity:1" offset=".2" id="stop17343"/>
      <stop style="stop-color:#ca9200;stop-opacity:1" offset=".40000001" id="stop17345"/>
      <stop style="stop-color:#b78910;stop-opacity:1" offset=".60000002" id="stop17347"/>
      <stop style="stop-color:#e7a600;stop-opacity:1" offset=".80245179" id="stop17349"/>
      <stop style="stop-color:#ca9900;stop-opacity:1" offset="1" id="stop17337"/>
    </linearGradient>
    <linearGradient xlink:href="#linearGradient23891" id="linearGradient23893" x1="29.38974" y1="87.341522" x2="48.031143" y2="87.341522" gradientUnits="userSpaceOnUse" gradientTransform="matrix(2.70567 0 0 2.70567 -38.961393 -29.254723)"/>
    <linearGradient id="linearGradient23891">
      <stop style="stop-color:#adadad;stop-opacity:1" offset="0" id="stop23887"/>
      <stop style="stop-color:#d7d7d7;stop-opacity:1" offset=".2" id="stop23895"/>
      <stop style="stop-color:#ddd;stop-opacity:1" offset=".40000001" id="stop23897"/>
      <stop style="stop-color:#fff;stop-opacity:1" offset=".60000002" id="stop23899"/>
      <stop style="stop-color:#e2e2e2;stop-opacity:1" offset=".80000001" id="stop23901"/>
      <stop style="stop-color:#dadada;stop-opacity:1" offset="1" id="stop23889"/>
    </linearGradient>
    <linearGradient xlink:href="#linearGradient26823" id="linearGradient26083" gradientUnits="userSpaceOnUse" x1="24.227865" y1="86.866188" x2="55.555779" y2="86.866188" gradientTransform="matrix(.9621 0 0 .90646 28.638808 127.62377)"/>
    <linearGradient id="linearGradient26823">
      <stop style="stop-color:#e1aa00;stop-opacity:1" offset="0" id="stop26811"/>
      <stop style="stop-color:#fdb500;stop-opacity:1" offset=".2" id="stop26813"/>
      <stop style="stop-color:#ffc21e;stop-opacity:1" offset=".40000001" id="stop26815"/>
      <stop style="stop-color:#e6ae14;stop-opacity:1" offset=".60000002" id="stop26817"/>
      <stop style="stop-color:#e7a600;stop-opacity:1" offset=".80245179" id="stop26819"/>
      <stop style="stop-color:#ca9900;stop-opacity:1" offset="1" id="stop26821"/>
    </linearGradient>
    <linearGradient xlink:href="#linearGradient30571" id="linearGradient30573" x1="37.800625" y1="38.577351" x2="83.627411" y2="38.577351" gradientUnits="userSpaceOnUse" gradientTransform="matrix(2.70567 0 0 2.70567 -39.858001 -28.020862)"/>
    <linearGradient id="linearGradient30571">
      <stop style="stop-color:#fff;stop-opacity:1" offset="0" id="stop30567"/>
      <stop style="stop-color:#e5e5e5;stop-opacity:1" offset=".20096463" id="stop30575"/>
      <stop style="stop-color:#ccc;stop-opacity:1" offset=".40000001" id="stop30577"/>
      <stop style="stop-color:#b2b2b2;stop-opacity:1" offset=".60000002" id="stop30579"/>
      <stop style="stop-color:#999;stop-opacity:1" offset=".80000001" id="stop30581"/>
      <stop style="stop-color:#b2b2b2;stop-opacity:1" offset="1" id="stop30569"/>
    </linearGradient>
    <path id="rect35313" d="M194.73172 140.91141h116.44761v40.120605H194.73172z"/>
    <path id="rect41333" d="M168.31084 138.9543h120.36182v45.013363H168.31084z"/>
  </defs>
  <g id="mtc" transform="translate(-30.879845)">
    <path id="rect49618" style="fill:url(#linearGradient51873);fill-opacity:1;stroke:none;stroke-width:6.72325;stroke-linecap:square;stroke-dasharray:none;stroke-opacity:1;paint-order:markers stroke fill" d="M195.89476 64.825214V99.79818h39.34865v-.21686a15.005885 17.486381 0 0 0 2.3335.21686 15.005885 17.486381 0 0 0 15.00602-17.486482 15.005885 17.486381 0 0 0-15.00602-17.486484 15.005885 17.486381 0 0 0-2.3335.215345v-.215345z"/>
    <path style="fill:url(#linearGradient47287);fill-opacity:1;stroke:url(#linearGradient48052);stroke-width:5.70053;stroke-linecap:square;stroke-dasharray:none;stroke-opacity:1;paint-order:markers stroke fill" id="rect44375" d="M189.21252 132.39854h77.057358v68.651093H189.21252z"/>
    <ellipse style="fill:url(#linearGradient10016);fill-opacity:1;stroke-width:13.7846;stroke-linecap:square;paint-order:markers stroke fill" id="path9282" cx="138.42468" cy="12.959646" rx="40.980503" ry="12.959646"/>
    <path id="rect4995" style="fill:url(#linearGradient5174);fill-opacity:1;stroke-width:19.1554;stroke-linecap:square;paint-order:markers stroke fill" d="M139.82546 11.208302a77.407625 20.665382 0 0 0-77.362134 20.301795h-.465598V297.89845H217.53436V31.510097h-.31459a77.407625 20.665382 0 0 0-77.39431-20.301795Z"/>
    <path id="path5000" style="fill:url(#linearGradient7094);fill-opacity:1;stroke-width:5.7472;stroke-linecap:square;paint-order:markers stroke fill" d="M139.82815 275.30489a80.893987 1.78009 0 0 0-80.846457 1.74875h-.486561V300H221.03695v-22.94636h-.32875a80.893987 1.78009 0 0 0-80.88005-1.74875z"/>
    <ellipse style="fill:url(#linearGradient17341);fill-opacity:1;stroke-width:18.3877;stroke-linecap:square;paint-order:markers stroke fill" id="path12977" cx="68.709213" cy="206.1312" rx="42.381546" ry="65.849014" transform="rotate(-1.274)"/>
    <ellipse style="fill:url(#linearGradient23893);fill-opacity:1;stroke-width:22.6585;stroke-linecap:square;paint-order:markers stroke fill" id="path21707" cx="65.776405" cy="207.06288" rx="25.218771" ry="41.681023" transform="rotate(-1.794)"/>
    <ellipse style="fill:url(#linearGradient26083);fill-opacity:1;stroke-width:6.34651;stroke-linecap:square;paint-order:markers stroke fill" id="ellipse26081" cx="67.018852" cy="206.36415" rx="15.07034" ry="22.060772" transform="rotate(-1.2005019) skewX(.1520275)"/>
    <path style="fill:url(#linearGradient30573);fill-opacity:1;stroke-width:16.123;stroke-linecap:square;paint-order:markers stroke fill" id="rect28387" d="M62.418129 36.427116h123.9923v79.859436h-123.9923z"/>
    <text xml:space="preserve" style="font-size:8.73245px;fill:#000;fill-opacity:1;stroke-width:14.0929;stroke-linecap:square;paint-order:markers stroke fill" x="110.71077" y="104.33431" id="text32821" transform="scale(1.01305 .98712)"><tspan id="tspan32819" style="fill:#000;fill-opacity:1;stroke-width:14.0929" x="110.71077" y="104.33431">TECHNOLOGIES</tspan></text>
    <text xml:space="preserve" transform="matrix(.62297 0 0 .55185 -4.14335 27.649884)" id="text35311" style="font-size:13.3333px;white-space:pre;shape-inside:url(#rect35313);display:inline;fill:#565656;fill-opacity:1;stroke-width:21.518;stroke-linecap:square;paint-order:markers stroke fill"><tspan x="194.73242" y="153.07648" id="tspan363">(215) 368-6900</tspan></text>
    <text xml:space="preserve" style="font-size:5.2446px;white-space:pre;inline-size:47.4604;fill:red;stroke-width:3.96875;paint-order:markers stroke fill" x="56.719326" y="28.822044" id="text5669" transform="matrix(2.75446 0 0 2.70567 -46.355435 -30.251046)"><tspan x="56.719326" y="28.822044" id="tspan367"><tspan style="fill:#000" id="tspan365">Mercury-</tspan></tspan><tspan x="56.719326" y="35.377794" id="tspan371"><tspan style="fill:#000" id="tspan369">Cadmium-</tspan></tspan><tspan x="56.719326" y="41.933542" id="tspan375"><tspan style="fill:#000" id="tspan373">Telluride</tspan></tspan></text>
  </g>
</svg>

<svg viewBox="0 0 238.24 300" version="1.1" id="svg4953" xmlns:xlink="http://www.w3.org/1999/xlink" xmlns="http://www.w3.org/2000/svg">
    <defs id="defs4950">
        <linearGradient id="linearGradient51871">
            <stop offset="0" id="stop51867" stop-color="#000" stop-opacity="1"/>
            <stop offset=".4" id="stop51875" stop-color="#676767" stop-opacity="1"/>
            <stop offset=".6" id="stop51877" stop-color="#3f3f3f" stop-opacity="1"/>
            <stop offset=".8" id="stop51879" stop-color="#333" stop-opacity="1"/>
            <stop offset="1" id="stop51869" stop-color="#262626" stop-opacity="1"/>
        </linearGradient>
        <linearGradient id="linearGradient48050">
            <stop offset="0" id="stop48046" stop-color="#fac000" stop-opacity="1"/>
            <stop offset=".2" id="stop48054" stop-color="#ffd645" stop-opacity="1"/>
            <stop offset=".4" id="stop48056" stop-color="#ffc505" stop-opacity="1"/>
            <stop offset=".6" id="stop48058" stop-color="#ffc80b" stop-opacity="1"/>
            <stop offset=".8" id="stop48060" stop-color="#ffd038" stop-opacity="1"/>
            <stop offset="1" id="stop48048" stop-color="#bd9100" stop-opacity="1"/>
        </linearGradient>
        <linearGradient id="linearGradient10014">
            <stop offset="0" id="stop10010" stop-color="#ffc242" stop-opacity="1"/>
            <stop offset=".2" id="stop10018" stop-color="#c08a00" stop-opacity="1"/>
            <stop offset=".4" id="stop10020" stop-color="#c09100" stop-opacity="1"/>
            <stop offset=".6" id="stop10022" stop-color="#eab100" stop-opacity="1"/>
            <stop offset=".8" id="stop10024" stop-color="#d49000" stop-opacity="1"/>
            <stop offset="1" id="stop10012" stop-color="#f79e00" stop-opacity="1"/>
        </linearGradient>
        <linearGradient id="linearGradient17339">
            <stop offset="0" id="stop17335" stop-color="#9a6a00" stop-opacity="1"/>
            <stop offset=".2" id="stop17343" stop-color="#b48100" stop-opacity="1"/>
            <stop offset=".4" id="stop17345" stop-color="#ca9200" stop-opacity="1"/>
            <stop offset=".6" id="stop17347" stop-color="#b78910" stop-opacity="1"/>
            <stop offset=".802" id="stop17349" stop-color="#e7a600" stop-opacity="1"/>
            <stop offset="1" id="stop17337" stop-color="#ca9900" stop-opacity="1"/>
        </linearGradient>
        <linearGradient id="linearGradient23891">
            <stop offset="0" id="stop23887" stop-color="#adadad" stop-opacity="1"/>
            <stop offset=".2" id="stop23895" stop-color="#d7d7d7" stop-opacity="1"/>
            <stop offset=".4" id="stop23897" stop-color="#ddd" stop-opacity="1"/>
            <stop offset=".6" id="stop23899" stop-color="#fff" stop-opacity="1"/>
            <stop offset=".8" id="stop23901" stop-color="#e2e2e2" stop-opacity="1"/>
            <stop offset="1" id="stop23889" stop-color="#dadada" stop-opacity="1"/>
        </linearGradient>
        <linearGradient id="linearGradient26823">
            <stop offset="0" id="stop26811" stop-color="#e1aa00" stop-opacity="1"/>
            <stop offset=".2" id="stop26813" stop-color="#fdb500" stop-opacity="1"/>
            <stop offset=".4" id="stop26815" stop-color="#ffc21e" stop-opacity="1"/>
            <stop offset=".6" id="stop26817" stop-color="#e6ae14" stop-opacity="1"/>
            <stop offset=".802" id="stop26819" stop-color="#e7a600" stop-opacity="1"/>
            <stop offset="1" id="stop26821" stop-color="#ca9900" stop-opacity="1"/>
        </linearGradient>
        <linearGradient xlink:href="#linearGradient30571" id="linearGradient30573" x1="37.801" y1="38.577" x2="83.627" y2="38.577" gradientUnits="userSpaceOnUse" gradientTransform="translate(-39.858 -28.02) scale(2.70567)"/>
        <linearGradient id="linearGradient30571">
            <stop offset="0" id="stop30567" stop-color="#fff" stop-opacity="1"/>
            <stop offset=".201" id="stop30575" stop-color="#e5e5e5" stop-opacity="1"/>
            <stop offset=".4" id="stop30577" stop-color="#ccc" stop-opacity="1"/>
            <stop offset=".6" id="stop30579" stop-color="#b2b2b2" stop-opacity="1"/>
            <stop offset=".8" id="stop30581" stop-color="#999" stop-opacity="1"/>
            <stop offset="1" id="stop30569" stop-color="#b2b2b2" stop-opacity="1"/>
        </linearGradient>
        <linearGradient xlink:href="#linearGradient51871" id="linearGradient51873-5" x1="87.133" y1="40.778" x2="108.084" y2="40.778" gradientUnits="userSpaceOnUse" gradientTransform="translate(-39.858 -28.02) scale(2.70567)"/>
        <linearGradient xlink:href="#linearGradient68939" id="linearGradient47287-8" x1="84.663" y1="71.977" x2="113.143" y2="71.977" gradientUnits="userSpaceOnUse" gradientTransform="translate(-39.858 -28.02) scale(2.70567)"/>
        <linearGradient id="linearGradient68939">
            <stop offset="0" id="stop68927" stop-color="#eb0f0f" stop-opacity="1"/>
            <stop offset=".2" id="stop68929" stop-color="#c80f0f" stop-opacity="1"/>
            <stop offset=".4" id="stop68931" stop-color="#b90f0f" stop-opacity="1"/>
            <stop offset=".6" id="stop68933" stop-color="#af0f0f" stop-opacity="1"/>
            <stop offset=".8" id="stop68935" stop-color="#9b0f0f" stop-opacity="1"/>
            <stop offset="1" id="stop68937" stop-color="#870f0f" stop-opacity="1"/>
        </linearGradient>
        <linearGradient xlink:href="#linearGradient48050" id="linearGradient48052-0" x1="82.088" y1="71.977" x2="115.718" y2="71.977" gradientUnits="userSpaceOnUse" gradientTransform="translate(-39.858 -28.02) scale(2.70567)"/>
        <linearGradient xlink:href="#linearGradient10014" id="linearGradient10016-7" x1="50.746" y1="15.146" x2="81.038" y2="15.146" gradientUnits="userSpaceOnUse" gradientTransform="translate(-39.858 -28.02) scale(2.70567)"/>
        <linearGradient xlink:href="#linearGradient65784" id="linearGradient5174-5" x1="37.283" y1="64.209" x2="95.537" y2="64.468" gradientUnits="userSpaceOnUse" gradientTransform="translate(-39.858 -28.02) scale(2.70567)"/>
        <linearGradient id="linearGradient65784">
            <stop offset="0" id="stop65772" stop-color="#fa0f0f" stop-opacity="1"/>
            <stop offset=".201" id="stop65774" stop-color="#e60f0f" stop-opacity="1"/>
            <stop offset=".4" id="stop65776" stop-color="#c80f0f" stop-opacity="1"/>
            <stop offset=".6" id="stop65778" stop-color="#9b0f0f" stop-opacity="1"/>
            <stop offset=".8" id="stop65780" stop-color="#b40f0f" stop-opacity="1"/>
            <stop offset="1" id="stop65782" stop-color="#d20f0f" stop-opacity="1"/>
        </linearGradient>
        <linearGradient xlink:href="#linearGradient67250" id="linearGradient7094-6" x1="36.506" y1="116.509" x2="96.573" y2="116.768" gradientUnits="userSpaceOnUse" gradientTransform="translate(-39.858 -28.02) scale(2.70567)"/>
        <linearGradient id="linearGradient67250">
            <stop offset="0" id="stop67238" stop-color="#f00000" stop-opacity="1"/>
            <stop offset=".201" id="stop67240" stop-color="#e10000" stop-opacity="1"/>
            <stop offset=".4" id="stop67242" stop-color="#c30000" stop-opacity="1"/>
            <stop offset=".6" id="stop67244" stop-color="#870000" stop-opacity="1"/>
            <stop offset=".8" id="stop67246" stop-color="#d20000" stop-opacity="1"/>
            <stop offset="1" id="stop67248" stop-color="#b40000" stop-opacity="1"/>
        </linearGradient>
        <linearGradient xlink:href="#linearGradient17339" id="linearGradient17341-0" x1="24.228" y1="86.866" x2="55.556" y2="86.866" gradientUnits="userSpaceOnUse" gradientTransform="translate(-39.225 -28.9) scale(2.70567)"/>
        <linearGradient xlink:href="#linearGradient23891" id="linearGradient23893-4" x1="29.39" y1="87.342" x2="48.031" y2="87.342" gradientUnits="userSpaceOnUse" gradientTransform="translate(-38.961 -29.255) scale(2.70567)"/>
        <linearGradient xlink:href="#linearGradient26823" id="linearGradient26083-8" gradientUnits="userSpaceOnUse" x1="24.228" y1="86.866" x2="55.556" y2="86.866" gradientTransform="matrix(.9621 0 0 .90646 28.639 127.624)"/>
        <path id="rect35313" d="M194.732 140.911H311.18v40.121H194.732z"/>
        <path id="rect41333" d="M168.311 138.954h120.362v45.013H168.311z"/>
    </defs>
    <g id="mtc" transform="translate(-30.88)" paint-order="markers stroke fill">
        <path id="rect49618-1" d="M195.895 64.825v34.973h39.348v-.217a15.006 17.486 0 002.334.217 15.006 17.486 0 0015.006-17.486 15.006 17.486 0 00-15.006-17.487 15.006 17.486 0 00-2.334.216v-.216z" fill="url(#linearGradient51873-5)" fill-opacity="1" stroke="none" stroke-width="6.723" stroke-linecap="square" stroke-dasharray="none" stroke-opacity="1"/>
        <path id="rect44375-2" fill="url(#linearGradient47287-8)" fill-opacity="1" stroke="url(#linearGradient48052-0)" stroke-width="5.701" stroke-linecap="square" stroke-dasharray="none" stroke-opacity="1" d="M189.213 132.399h77.057v68.651h-77.057z"/>
        <ellipse id="path9282-8" cx="138.425" cy="12.96" rx="40.981" ry="12.96" fill="url(#linearGradient10016-7)" fill-opacity="1" stroke-width="13.785" stroke-linecap="square"/>
        <path id="rect4995-9" d="M139.825 11.208A77.408 20.665 0 0062.463 31.51h-.465v266.388h155.536V31.51h-.314a77.408 20.665 0 00-77.395-20.302z" fill="url(#linearGradient5174-5)" fill-opacity="1" stroke-width="19.155" stroke-linecap="square"/>
        <path id="path5000-7" d="M139.828 275.305a80.894 1.78 0 00-80.846 1.749h-.487V300h162.542v-22.946h-.329a80.894 1.78 0 00-80.88-1.75z" fill="url(#linearGradient7094-6)" fill-opacity="1" stroke-width="5.747" stroke-linecap="square"/>
        <ellipse id="path12977-7" cx="68.709" cy="206.131" rx="42.382" ry="65.849" transform="rotate(-1.274)" fill="url(#linearGradient17341-0)" fill-opacity="1" stroke-width="18.388" stroke-linecap="square"/>
        <ellipse id="path21707-9" cx="65.776" cy="207.063" rx="25.219" ry="41.681" transform="rotate(-1.794)" fill="url(#linearGradient23893-4)" fill-opacity="1" stroke-width="22.659" stroke-linecap="square"/>
        <ellipse id="ellipse26081-1" cx="67.019" cy="206.364" rx="15.07" ry="22.061" transform="rotate(-1.201) skewX(.152)" fill="url(#linearGradient26083-8)" fill-opacity="1" stroke-width="6.347" stroke-linecap="square"/>
        <path id="rect28387" fill="url(#linearGradient30573)" fill-opacity="1" stroke-width="16.123" stroke-linecap="square" d="M62.418 36.427H186.41v79.859H62.418z"/>
        <text xml:space="preserve" x="110.711" y="104.334" id="text32821" transform="scale(1.01305 .98712)" font-size="8.732" fill="#000" fill-opacity="1" stroke-width="14.093" stroke-linecap="square">
            <tspan id="tspan32819" x="110.711" y="104.334" fill="#000" fill-opacity="1" stroke-width="14.093">TECHNOLOGIES</tspan>
        </text>
        <text xml:space="preserve" transform="matrix(.62297 0 0 .55185 -4.143 27.65)" id="text35311" style="white-space:pre;shape-inside:url(#rect35313)" font-size="13.333" display="inline" fill="#565656" fill-opacity="1" stroke-width="21.518" stroke-linecap="square">
            <tspan x="194.732" y="153.076" id="tspan70355">(215) 368-6900</tspan>
        </text>
        <text xml:space="preserve" style="white-space:pre;inline-size:47.4604" x="56.719" y="28.822" id="text5669" transform="matrix(2.75446 0 0 2.70567 -46.355 -30.251)" font-size="5.245" display="inline" fill="red" stroke-width="3.969">
            <tspan x="56.719" y="28.822" id="tspan70359"><tspan id="tspan70357" fill="#000">Mercury-</tspan></tspan><tspan x="56.719" y="35.378" id="tspan70363"><tspan id="tspan70361" fill="#000">Cadmium-</tspan></tspan><tspan x="56.719" y="41.934" id="tspan70367"><tspan id="tspan70365" fill="#000">Telluride</tspan></tspan>
        </text>
    </g>
</svg>
